img/svg/products-decoration-mob-3.svg

<svg width="181" height="376" viewBox="0 0 181 376" fill="none" xmlns="http://www.w3.org/2000/svg">
<g opacity="0.07">
<g clip-path="url(#clip0)">
<path d="M161.772 260.461L163.113 256.148L187.319 264.345L256.499 240.975L325.638 264.221L394.953 240.986L464.226 264.096L533.406 240.727L602.545 263.972L626.765 255.732L628.099 260.042L602.541 268.553L533.402 245.577L464.088 268.812L394.948 245.566L325.768 268.936L256.495 245.825L187.315 268.925L161.772 260.461Z" fill="#B69D6D"/>
<path d="M122.879 221.29L124.221 216.978L187.342 238.208L256.522 214.838L325.662 238.084L394.976 214.849L464.249 237.96L533.429 214.59L602.568 237.836L665.727 216.492L667.061 220.802L602.564 242.417L533.425 219.44L464.111 242.675L394.972 219.43L325.791 242.799L256.518 219.689L187.338 242.789L122.879 221.29Z" fill="#B69D6D"/>
<path d="M102.164 199.079L100.696 194.904L118.226 188.825L187.365 212.071L256.545 188.701L325.685 211.947L394.999 188.712L464.272 211.823L533.452 188.453L602.592 211.699L671.772 188.329L689.291 194.376L687.815 198.554L671.768 193.179L602.587 216.279L533.448 193.303L464.134 216.538L394.995 193.293L325.814 216.662L256.541 193.551L187.361 216.652L118.221 193.676L102.164 199.079Z" fill="#B69D6D"/>
<path d="M82.6507 179.426L81.1829 175.251L118.249 162.688L187.388 185.934L256.568 162.564L325.708 185.81L395.022 162.575L464.295 185.686L533.475 162.316L602.615 185.562L671.795 162.192L708.839 174.688L707.364 178.866L671.791 167.042L602.611 190.142L533.471 167.166L464.157 190.401L395.018 167.156L325.837 190.525L256.564 167.414L187.384 190.515L118.244 167.538L82.6507 179.426Z" fill="#B69D6D"/>
<path d="M63.2712 159.908L61.8034 155.733L118.272 136.551L187.411 159.797L256.592 136.427L325.731 159.673L395.045 136.438L464.318 159.549L533.499 136.179L602.638 159.425L671.818 136.055L728.253 155.135L726.778 159.313L671.814 140.905L602.5 164.14L533.494 141.029L464.18 164.264L395.041 141.018L325.86 164.388L256.587 141.277L187.541 164.512L118.268 141.401L63.2712 159.908Z" fill="#B69D6D"/>
<path d="M36.4058 134.2L37.881 130.022L49.1145 133.784L118.295 110.414L187.434 133.66L256.615 110.29L325.754 133.536L395.068 110.301L464.341 133.412L533.522 110.042L602.661 133.288L671.841 109.918L740.981 133.164L752.221 129.381L753.689 133.556L741.11 137.879L671.837 114.768L602.523 138.003L533.517 114.892L464.203 138.127L395.064 114.881L325.883 138.251L256.61 115.14L187.564 138.375L118.291 115.264L48.9765 138.5L36.4058 134.2Z" fill="#B69D6D"/>
<path d="M5.67059 97.8508L7.01214 93.5383L49.1377 107.647L118.318 84.277L187.457 107.523L256.638 84.153L325.777 107.399L395.091 84.1635L464.364 107.274L533.545 83.9047L602.684 107.15L671.864 83.7806L741.004 107.026L783.154 92.8423L784.488 97.1523L741.133 111.742L671.86 88.6308L602.546 111.866L533.54 88.7548L464.226 111.99L395.087 88.7443L325.907 112.114L256.634 89.0032L187.587 112.238L118.314 89.1272L48.9997 112.362L5.67059 97.8508Z" fill="#B69D6D"/>
<path d="M25.2186 78.1632L26.4262 73.9856L49.1607 81.5098L118.341 58.14L187.48 81.3858L256.661 58.016L325.8 81.2618L395.114 58.0266L464.387 81.1375L533.568 57.7677L602.707 81.0134L671.888 57.6436L741.027 80.8893L763.775 73.3242L764.975 77.4997L741.156 85.6047L671.883 62.4938L602.569 85.729L533.564 62.6178L464.249 85.853L395.11 62.6073L325.93 85.9771L256.657 62.8662L187.61 86.1011L118.337 62.9902L49.0227 86.2254L25.2186 78.1632Z" fill="#B69D6D"/>
<path d="M44.6327 58.6103L45.9742 54.2979L49.1838 55.3728L118.364 32.003L187.504 55.2487L256.684 31.879L325.823 55.1247L395.137 31.8895L464.41 55.0004L533.591 31.6306L602.73 54.8763L671.911 31.5066L741.05 54.7523L744.261 53.6716L745.595 57.9817L741.179 59.4676L671.906 36.3567L602.592 59.5919L533.587 36.4808L464.273 59.716L395.133 36.4702L325.953 59.84L256.68 36.7291L187.633 59.9641L118.36 36.8532L49.0459 60.0884L44.6327 58.6103Z" fill="#B69D6D"/>
<path d="M81.1837 23.1443L79.7159 18.9691L118.387 5.86592L187.527 29.1117L256.841 5.87647L325.846 28.9876L395.16 5.75242L464.434 28.8633L533.48 5.6284L602.753 28.7393L671.934 5.36949L710.582 18.4033L709.107 22.5812L671.93 10.2197L602.615 33.4549L533.61 10.3437L464.296 33.5789L395.156 10.3332L325.976 33.7029L256.703 10.592L187.656 33.827L118.383 10.7161L81.1837 23.1443Z" fill="#B69D6D"/>
<path d="M118.273 -15.5555L119.614 -19.868L187.55 2.97468L256.864 -20.2605L325.869 2.8506L395.184 -20.3846L464.457 2.72631L533.503 -20.5086L602.776 2.60229L670.753 -20.3623L672.086 -16.0522L602.638 7.31784L533.633 -15.7933L464.319 7.44191L395.179 -15.8039L325.999 7.56595L256.726 -15.545L187.679 7.69001L118.273 -15.5555Z" fill="#B69D6D"/>
<path d="M137.687 -35.1083L139.028 -39.4208L187.573 -23.1624L256.887 -46.3976L325.893 -23.2864L395.207 -46.5216L464.48 -23.4107L533.526 -46.6457L602.8 -23.5348L651.373 -39.8803L652.707 -35.5702L602.662 -18.8192L533.656 -41.9303L464.342 -18.6952L395.203 -41.9409L326.022 -18.5711L256.749 -41.682L187.702 -18.447L137.687 -35.1083Z" fill="#B69D6D"/>
<path d="M157.235 -54.796L158.576 -59.1085L187.596 -49.2994L256.91 -72.5346L325.916 -49.4235L395.23 -72.6586L464.503 -49.5478L533.549 -72.7827L602.823 -49.6718L631.86 -59.5329L633.194 -55.2228L602.685 -44.9562L533.679 -68.0674L464.365 -44.8322L395.226 -68.0779L326.045 -44.7081L256.772 -67.819L187.726 -44.5841L157.235 -54.796Z" fill="#B69D6D"/>
<path d="M176.649 -74.3488L177.99 -78.6613L187.619 -75.4364L256.933 -98.6716L325.939 -75.5605L395.253 -98.7957L464.526 -75.6848L533.573 -98.9197L602.846 -75.8088L612.48 -79.0509L613.814 -74.7409L602.708 -71.0933L533.702 -94.2044L464.388 -70.9692L395.249 -94.215L326.068 -70.8452L256.795 -93.9561L187.749 -70.7211L176.649 -74.3488Z" fill="#B69D6D"/>
</g>
</g>
<defs>
<clipPath id="clip0">
<rect width="559.014" height="560.011" transform="matrix(0.704586 0.709619 -0.704586 0.709619 395.43 -299)" fill="white"/>
</clipPath>
</defs>
</svg>

<svg width="181" height="376" viewBox="0 0 181 376" fill="none" xmlns="http://www.w3.org/2000/svg"><g clip-path="url(#clip0)" fill="#B69D6D" opacity=".07"><path d="M161.772 260.461l1.341-4.313 24.206 8.197 69.18-23.37 69.139 23.246 69.315-23.235 69.273 23.11 69.18-23.369 69.139 23.245 24.22-8.24 1.334 4.31-25.558 8.511-69.139-22.976-69.314 23.235-69.14-23.246-69.18 23.37-69.273-23.111-69.18 23.1-25.543-8.464z"/><path d="M122.879 221.29l1.342-4.312 63.121 21.23 69.18-23.37 69.14 23.246 69.314-23.235 69.273 23.111 69.18-23.37 69.139 23.246 63.159-21.344 1.334 4.31-64.497 21.615-69.139-22.977-69.314 23.235-69.139-23.245-69.181 23.369-69.273-23.11-69.18 23.1-64.459-21.499z"/><path d="M102.164 199.079l-1.468-4.175 17.53-6.079 69.139 23.246 69.18-23.37 69.14 23.246 69.314-23.235 69.273 23.111 69.18-23.37 69.14 23.246 69.18-23.37 17.519 6.047-1.476 4.178-16.047-5.375-69.181 23.1-69.139-22.976-69.314 23.235-69.139-23.245-69.181 23.369-69.273-23.111-69.18 23.101-69.14-22.976-16.057 5.403z"/><path d="M82.65 179.426l-1.467-4.175 37.066-12.563 69.139 23.246 69.18-23.37 69.14 23.246 69.314-23.235 69.273 23.111 69.18-23.37 69.14 23.246 69.18-23.37 37.044 12.496-1.475 4.178-35.573-11.824-69.18 23.1-69.14-22.976-69.314 23.235-69.139-23.245-69.181 23.369-69.273-23.111-69.18 23.101-69.14-22.977-35.593 11.888z"/><path d="M63.271 159.908l-1.468-4.175 56.469-19.182 69.139 23.246 69.181-23.37 69.139 23.246 69.314-23.235 69.273 23.111 69.181-23.37 69.139 23.246 69.18-23.37 56.435 19.08-1.475 4.178-54.964-18.408L602.5 164.14l-69.006-23.111-69.314 23.235-69.139-23.246-69.181 23.37-69.273-23.111-69.046 23.235-69.273-23.111-54.997 18.507z"/><path d="M36.406 134.2l1.475-4.178 11.233 3.762 69.181-23.37 69.139 23.246 69.181-23.37 69.139 23.246 69.314-23.235 69.273 23.111 69.181-23.37 69.139 23.246 69.18-23.37 69.14 23.246 11.24-3.783 1.468 4.175-12.579 4.323-69.273-23.111-69.314 23.235-69.006-23.111-69.314 23.235-69.139-23.246-69.181 23.37-69.273-23.111-69.046 23.235-69.273-23.111L48.977 138.5l-12.571-4.3z"/><path d="M5.67 97.85l1.342-4.312 42.126 14.109 69.18-23.37 69.139 23.246 69.181-23.37 69.139 23.246 69.314-23.236 69.273 23.111 69.181-23.37 69.139 23.246 69.18-23.37 69.14 23.246 42.15-14.184 1.334 4.31-43.355 14.59-69.273-23.111-69.314 23.235-69.006-23.111-69.314 23.235-69.139-23.246-69.18 23.37-69.273-23.11-69.047 23.234-69.273-23.11L49 112.361 5.67 97.851z"/><path d="M25.219 78.163l1.207-4.177 22.735 7.524 69.18-23.37 69.139 23.246 69.181-23.37L325.8 81.262l69.314-23.235 69.273 23.11 69.181-23.37 69.139 23.246 69.181-23.37 69.139 23.246 22.748-7.565 1.2 4.176-23.819 8.105-69.273-23.111-69.314 23.235-69.005-23.111-69.315 23.235-69.139-23.246-69.18 23.37-69.273-23.11L187.61 86.1l-69.273-23.11-69.314 23.234-23.804-8.062z"/><path d="M44.633 58.61l1.341-4.312 3.21 1.075 69.18-23.37 69.14 23.246 69.18-23.37 69.139 23.246 69.314-23.235L464.41 55l69.181-23.37 69.139 23.246 69.181-23.37 69.139 23.246 3.211-1.08 1.334 4.31-4.416 1.486-69.273-23.111-69.314 23.235-69.005-23.111-69.314 23.235-69.14-23.246-69.18 23.37-69.273-23.11-69.047 23.234-69.273-23.11-69.314 23.234-4.413-1.478z"/><path d="M81.184 23.144l-1.468-4.175 38.671-13.103 69.14 23.246 69.314-23.236 69.005 23.112L395.16 5.752l69.274 23.111L533.48 5.628l69.273 23.111 69.181-23.37 38.648 13.034-1.475 4.178L671.93 10.22l-69.315 23.235-69.005-23.111-69.314 23.235-69.14-23.246-69.18 23.37-69.273-23.111-69.047 23.235-69.273-23.11-37.2 12.427z"/><path d="M118.273-15.556l1.341-4.312L187.55 2.975l69.314-23.236 69.005 23.112 69.315-23.236 69.273 23.111 69.046-23.235 69.273 23.111 67.977-22.964 1.333 4.31-69.448 23.37-69.005-23.111-69.314 23.235-69.14-23.246-69.18 23.37-69.273-23.111L187.679 7.69l-69.406-23.246z"/><path d="M137.687-35.108l1.341-4.313 48.545 16.259 69.314-23.236 69.006 23.112 69.314-23.236L464.48-23.41l69.046-23.235 69.274 23.11 48.573-16.345 1.334 4.31-50.045 16.75-69.006-23.11-69.314 23.235-69.139-23.246-69.181 23.37-69.273-23.111-69.047 23.235-50.015-16.661z"/><path d="M157.235-54.796l1.341-4.313 29.02 9.81 69.314-23.236 69.006 23.111 69.314-23.235 69.273 23.111 69.046-23.235 69.274 23.111 29.037-9.86 1.334 4.31-30.509 10.266-69.006-23.111-69.314 23.235-69.139-23.246-69.181 23.37-69.273-23.111-69.046 23.235-30.491-10.212z"/><path d="M176.649-74.349l1.341-4.312 9.629 3.225 69.314-23.236 69.006 23.111 69.314-23.235 69.273 23.111 69.047-23.235 69.273 23.111 9.634-3.242 1.334 4.31-11.106 3.648-69.006-23.111-69.314 23.235-69.139-23.246-69.181 23.37-69.273-23.111-69.046 23.235-11.1-3.628z"/></g><defs><clipPath id="clip0"><path transform="scale(.99644 1.00355) rotate(45 558.07 330.063)" fill="#fff" d="M0 0h559.014v560.011H0z"/></clipPath></defs></svg>
